static/img/rest-catalog.svg

<svg width="40" height="40" viewBox="0 0 40 40" fill="none" xmlns="http://www.w3.org/2000/svg">
    <rect width="40" height="40" rx="8" fill="#F2F4F7" />
    <path d="M10 14H30V26H10V14Z" fill="#DC2626" />
    <path d="M13 18H16M13 22H22" stroke="white" strokeWidth="2" strokeLinecap="round" />
    <path
        d="M24 18C24 17.4477 24.4477 17 25 17H27C27.5523 17 28 17.4477 28 18V22C28 22.5523 27.5523 23 27 23H25C24.4477 23 24 22.5523 24 22V18Z"
        fill="white" />
</svg>

<svg xmlns="http://www.w3.org/2000/svg" width="40" height="40" fill="none" viewBox="0 0 40 40"><rect width="40" height="40" fill="#f2f4f7" rx="8"/><path fill="#dc2626" d="M10 14h20v12H10z"/><path stroke="#fff" d="M13 18h3m-3 4h9"/><path fill="#fff" d="M24 18a1 1 0 0 1 1-1h2a1 1 0 0 1 1 1v4a1 1 0 0 1-1 1h-2a1 1 0 0 1-1-1z"/></svg>
